X: 155
T: Jim Carroll's Jig
T: Jig, Bb
C: Carl MacKenzie
L: 1/16
M: 6/8
K: Bb
|: d2e2| f2b2g2 f2d2B2| F2d2c2 B2G2E2| F2D2D2 B2A2B2| c2A2F2 e2d2e2|
 f2b2g2 f2d2B2| F2d2c2 B2G2E2| F2D2D2 e2c2A2| [1 c2B2B2 B2:| [2 B6 B2|] 
|: D2E2| F6 d2c2d2| B2F2E2 D2C2B,2| G6 e2d2e2| c2A2F2 c2d2e2|
 [1 f6 b2a2b2| g2e2B2 G2B2e2| f2d2B2 F2A2c2| d2B2B2 B2:|
 [2 f6 b2a2b2| g2e2B2 G2E2C2| F2D2D2 e2c2A2| B6 B2|] 
D: Carl MacKenzie, A Cape Breton Classic, CLM 1007
